comments/public/icon.svg

<?xml version="1.0" encoding="UTF-8" standalone="no"?>
<svg
   viewBox="100 0 192 192"
   width="192px"
   height="192px"
   version="1.1"
   id="svg23"
   sodipodi:docname="icon.svg"
   inkscape:version="1.1.1 (3bf5ae0d25, 2021-09-20)"
   xmlns:inkscape="http://www.inkscape.org/namespaces/inkscape"
   xmlns:sodipodi="http://sodipodi.sourceforge.net/DTD/sodipodi-0.dtd"
   xmlns:xlink="http://www.w3.org/1999/xlink"
   xmlns="http://www.w3.org/2000/svg"
   xmlns:svg="http://www.w3.org/2000/svg">
  <defs
     id="defs27">
    <linearGradient
       inkscape:collect="always"
       id="linearGradient4025">
      <stop
         style="stop-color:#0000ff;stop-opacity:1;"
         offset="0"
         id="stop4021" />
      <stop
         style="stop-color:#0000ff;stop-opacity:0.44560668"
         offset="1"
         id="stop4023" />
    </linearGradient>
    <linearGradient
       inkscape:collect="always"
       id="linearGradient2882">
      <stop
         style="stop-color:#ff5b7b;stop-opacity:1;"
         offset="0"
         id="stop2878" />
      <stop
         style="stop-color:#eb5b7e;stop-opacity:0.61087865"
         offset="1"
         id="stop2880" />
    </linearGradient>
    <radialGradient
       inkscape:collect="always"
       xlink:href="#linearGradient2882"
       id="radialGradient2884"
       cx="166.39876"
       cy="49.711544"
       fx="166.39876"
       fy="49.711544"
       r="86.6915"
       gradientTransform="matrix(1.3046734,-2.1038597e-4,5.27977e-5,0.32741352,-50.699904,30.941318)"
       gradientUnits="userSpaceOnUse" />
    <radialGradient
       inkscape:collect="always"
       xlink:href="#linearGradient4025"
       id="radialGradient4093"
       cx="195.0835"
       cy="133.7485"
       fx="195.0835"
       fy="133.7485"
       r="92.8955"
       gradientTransform="matrix(1,0,0,0.49153619,0,68.006272)"
       gradientUnits="userSpaceOnUse" />
  </defs>
  <sodipodi:namedview
     id="namedview25"
     pagecolor="#ffffff"
     bordercolor="#666666"
     borderopacity="1.0"
     inkscape:pageshadow="2"
     inkscape:pageopacity="0.0"
     inkscape:pagecheckerboard="0"
     showgrid="false"
     inkscape:snap-bbox="false"
     inkscape:snap-global="true"
     inkscape:zoom="9.3020833"
     inkscape:cx="62.19037"
     inkscape:cy="96"
     inkscape:window-width="3840"
     inkscape:window-height="2066"
     inkscape:window-x="2293"
     inkscape:window-y="-11"
     inkscape:window-maximized="1"
     inkscape:current-layer="svg23" />
  <path
     d="M 118.122 133.623 C 118.122 138.92 119.024 143.735 120.834 148.065 C 122.641 152.398 125.16 156.117 128.389 159.228 C 131.62 162.34 135.481 164.736 139.97 166.419 C 144.46 168.1 149.389 168.941 154.757 168.941 C 160.122 168.941 164.776 168.458 168.718 167.489 C 172.663 166.524 176.495 165.198 180.219 163.517 L 184.982 173.483 C 180.931 175.164 176.303 176.572 171.101 177.709 C 165.899 178.843 159.848 179.41 152.949 179.41 C 145.392 179.41 138.519 178.359 132.333 176.257 C 126.145 174.154 120.803 171.148 116.317 167.238 C 111.825 163.328 108.348 158.576 105.886 152.985 C 103.419 147.392 102.188 141.105 102.188 134.126 C 102.188 127.4 103.419 121.218 105.886 115.585 C 108.348 109.951 111.88 105.095 116.478 101.014 C 121.081 96.938 126.637 93.762 133.154 91.49 C 139.67 89.221 146.925 88.087 154.919 88.087 C 160.504 88.087 165.517 88.485 169.952 89.285 C 174.386 90.084 178.576 91.197 182.516 92.629 L 177.753 102.718 C 174.36 101.456 170.884 100.447 167.324 99.693 C 163.761 98.933 159.574 98.556 154.757 98.556 C 149.499 98.556 144.626 99.334 140.134 100.889 C 135.645 102.447 131.757 104.738 128.471 107.763 C 125.187 110.792 122.641 114.471 120.834 118.801 C 119.024 123.13 118.122 128.072 118.122 133.623 Z M 273.357 179.41 L 259.065 155.444 C 255.452 149.474 250.905 145.226 245.43 142.704 C 239.955 140.18 232.946 138.92 224.402 138.92 L 221.94 138.92 L 221.94 177.898 L 206.335 177.898 L 206.335 89.852 C 212.247 89.432 217.806 89.116 223.006 88.906 C 228.209 88.698 233.876 88.591 240.011 88.591 C 247.018 88.591 253.151 89.158 258.409 90.293 C 263.664 91.428 268.046 93.048 271.549 95.15 C 275.054 97.253 277.71 99.733 279.519 102.591 C 281.325 105.45 282.228 108.605 282.228 112.052 C 282.228 118.19 279.845 123.13 275.082 126.873 C 270.317 130.615 263.446 133.412 254.465 135.261 C 256.658 136.019 258.683 136.881 260.544 137.848 C 262.406 138.814 264.157 139.991 265.8 141.379 C 267.444 142.768 269.058 144.428 270.646 146.364 C 272.236 148.298 273.85 150.65 275.495 153.426 L 287.979 174.113 Z M 240.011 98.682 C 236.283 98.682 232.946 98.723 229.988 98.808 C 227.03 98.892 224.349 99.018 221.94 99.186 L 221.94 128.829 L 240.011 128.829 C 247.894 128.829 254.299 127.484 259.23 124.79 C 264.157 122.1 266.621 118.233 266.621 113.188 C 266.621 108.984 264.321 105.515 259.724 102.78 C 255.124 100.048 248.551 98.682 240.011 98.682 Z"
     style="white-space:pre;stroke-width:1.61277px;fill:url(#radialGradient4093);fill-opacity:1"
     id="path19" />
  <path
     d="m 133.764,58.941 c 0,-2.24 -0.208,-4.157 -0.626,-5.756 -0.417,-1.597 -0.989,-2.904 -1.717,-3.919 -0.726,-1.014 -1.576,-1.762 -2.551,-2.24 -0.972,-0.477 -2.014,-0.716 -3.127,-0.716 -1.078,0 -2.092,0.261 -3.041,0.783 -0.949,0.522 -1.77,1.307 -2.466,2.352 -0.695,1.047 -1.246,2.36 -1.656,3.942 -0.408,1.584 -0.613,3.436 -0.613,5.554 0,2.062 0.21,3.876 0.626,5.443 0.417,1.569 0.978,2.889 1.68,3.966 0.704,1.075 1.525,1.881 2.466,2.418 0.94,0.538 1.941,0.807 3.004,0.807 1.015,0 2.003,-0.277 2.968,-0.83 0.966,-0.552 1.819,-1.365 2.563,-2.439 0.744,-1.076 1.346,-2.397 1.804,-3.967 0.458,-1.567 0.686,-3.366 0.686,-5.398 z M 117.183,41.382 c -0.769,-0.507 -1.505,-1.188 -2.209,-2.038 -0.702,-0.851 -1.328,-1.814 -1.875,-2.89 -0.548,-1.074 -0.985,-2.254 -1.312,-3.538 -0.328,-1.285 -0.491,-2.628 -0.491,-4.032 0,-2.18 0.22,-4.114 0.662,-5.8 0.442,-1.687 1.038,-3.144 1.791,-4.367 0.752,-1.226 1.618,-2.248 2.6,-3.07 0.981,-0.822 2.007,-1.486 3.078,-1.993 1.071,-0.507 2.151,-0.866 3.237,-1.074 1.089,-0.211 2.115,-0.315 3.079,-0.315 0.981,0 2.024,0.097 3.127,0.29 1.104,0.196 2.196,0.532 3.275,1.009 1.08,0.477 2.118,1.12 3.115,1.926 0.998,0.807 1.874,1.823 2.625,3.046 0.752,1.225 1.353,2.689 1.803,4.392 0.45,1.7 0.675,3.686 0.675,5.956 0,1.374 -0.164,2.711 -0.492,4.009 -0.326,1.3 -0.751,2.501 -1.275,3.607 -0.524,1.105 -1.119,2.083 -1.79,2.935 -0.67,0.85 -1.349,1.515 -2.035,1.991 1.143,0.45 2.238,1.187 3.286,2.219 1.046,1.03 1.97,2.298 2.771,3.807 0.801,1.509 1.435,3.233 1.902,5.174 0.465,1.941 0.698,4.045 0.698,6.315 0,2.898 -0.265,5.414 -0.797,7.55 -0.532,2.134 -1.246,3.949 -2.145,5.442 -0.9,1.492 -1.944,2.709 -3.127,3.651 -1.186,0.941 -2.434,1.672 -3.742,2.195 -1.309,0.521 -2.64,0.881 -3.997,1.074 -1.357,0.195 -2.65,0.292 -3.877,0.292 -1.177,0 -2.424,-0.12 -3.74,-0.358 -1.317,-0.239 -2.622,-0.659 -3.912,-1.254 -1.292,-0.598 -2.53,-1.389 -3.716,-2.375 -1.186,-0.985 -2.229,-2.225 -3.128,-3.719 -0.9,-1.491 -1.615,-3.269 -2.146,-5.328 -0.532,-2.062 -0.798,-4.451 -0.798,-7.17 0,-2.298 0.246,-4.434 0.736,-6.406 0.491,-1.971 1.146,-3.716 1.963,-5.24 0.817,-1.522 1.762,-2.792 2.832,-3.807 1.072,-1.016 2.188,-1.717 3.349,-2.106 z m 8.56,-20.561 c -0.818,0 -1.582,0.172 -2.294,0.515 -0.71,0.344 -1.331,0.874 -1.863,1.592 -0.532,0.715 -0.948,1.642 -1.251,2.777 -0.302,1.135 -0.455,2.493 -0.455,4.075 0,1.524 0.156,2.845 0.467,3.964 0.311,1.12 0.732,2.046 1.263,2.778 0.532,0.732 1.153,1.277 1.865,1.635 0.711,0.359 1.467,0.537 2.268,0.537 0.77,0 1.517,-0.178 2.245,-0.537 0.728,-0.358 1.373,-0.911 1.937,-1.657 0.565,-0.746 1.018,-1.68 1.362,-2.801 0.343,-1.119 0.514,-2.425 0.514,-3.919 0,-1.672 -0.155,-3.076 -0.465,-4.211 -0.311,-1.135 -0.74,-2.052 -1.288,-2.755 -0.548,-0.701 -1.189,-1.209 -1.925,-1.522 -0.736,-0.314 -1.53,-0.471 -2.38,-0.471 z m 57.27,24.683 c 0,3.941 -0.245,7.502 -0.735,10.683 -0.491,3.18 -1.166,6.018 -2.024,8.511 -0.858,2.494 -1.861,4.652 -3.005,6.473 -1.145,1.822 -2.371,3.323 -3.68,4.502 -1.308,1.181 -2.665,2.054 -4.071,2.621 -1.407,0.568 -2.796,0.851 -4.169,0.851 -1.391,0 -2.789,-0.306 -4.196,-0.917 -1.406,-0.613 -2.754,-1.539 -4.046,-2.777 -1.293,-1.241 -2.499,-2.787 -3.619,-4.637 -1.12,-1.853 -2.092,-4.025 -2.919,-6.518 -0.825,-2.493 -1.475,-5.309 -1.95,-8.445 -0.474,-3.135 -0.711,-6.585 -0.711,-10.347 0,-3.972 0.241,-7.555 0.724,-10.752 0.482,-3.195 1.141,-6.047 1.974,-8.555 0.834,-2.508 1.816,-4.667 2.944,-6.472 1.129,-1.808 2.338,-3.294 3.629,-4.458 1.292,-1.165 2.634,-2.032 4.024,-2.599 1.39,-0.568 2.771,-0.852 4.146,-0.852 1.471,0 2.934,0.284 4.389,0.852 1.455,0.567 2.837,1.434 4.146,2.599 1.308,1.164 2.522,2.65 3.642,4.458 1.12,1.805 2.085,3.964 2.894,6.472 0.81,2.508 1.448,5.36 1.914,8.555 0.465,3.197 0.699,6.78 0.699,10.752 z m -9.663,0 c 0,-1.971 -0.054,-3.987 -0.16,-6.049 -0.107,-2.059 -0.279,-4.061 -0.515,-6.002 -0.238,-1.94 -0.556,-3.763 -0.957,-5.465 -0.4,-1.701 -0.899,-3.189 -1.497,-4.457 -0.596,-1.27 -1.3,-2.27 -2.109,-3 -0.81,-0.734 -1.738,-1.099 -2.783,-1.099 -0.967,0 -1.828,0.365 -2.589,1.099 -0.761,0.73 -1.431,1.724 -2.012,2.977 -0.579,1.255 -1.07,2.734 -1.471,4.436 -0.401,1.702 -0.728,3.515 -0.981,5.443 -0.254,1.926 -0.438,3.925 -0.552,6.002 -0.115,2.076 -0.172,4.114 -0.172,6.115 0,1.97 0.057,3.986 0.172,6.048 0.114,2.059 0.298,4.053 0.552,5.98 0.253,1.926 0.58,3.74 0.981,5.442 0.401,1.703 0.892,3.187 1.471,4.457 0.581,1.269 1.251,2.278 2.012,3.024 0.761,0.746 1.622,1.12 2.589,1.12 0.915,0 1.753,-0.381 2.513,-1.142 0.76,-0.763 1.44,-1.792 2.036,-3.091 0.597,-1.3 1.112,-2.807 1.545,-4.525 0.433,-1.717 0.793,-3.538 1.08,-5.465 0.286,-1.927 0.498,-3.904 0.637,-5.936 0.139,-2.029 0.21,-4 0.21,-5.912 z m 47.018,-12.768 c 0,2.658 -0.197,4.95 -0.59,6.876 -0.393,1.927 -0.923,3.577 -1.594,4.951 -0.67,1.373 -1.459,2.53 -2.367,3.471 -0.907,0.942 -1.876,1.769 -2.906,2.488 -1.03,0.715 -2.097,1.358 -3.201,1.925 -1.103,0.568 -2.196,1.164 -3.275,1.791 -1.08,0.628 -2.117,1.344 -3.115,2.15 -0.998,0.808 -1.897,1.801 -2.698,2.979 -0.801,1.18 -1.488,2.599 -2.06,4.256 -0.573,1.658 -0.964,3.65 -1.178,5.981 h 22.984 v 8.241 h -33.457 c 0.359,-4.121 0.875,-7.681 1.545,-10.683 0.67,-3.001 1.448,-5.577 2.33,-7.726 0.883,-2.151 1.844,-3.951 2.882,-5.4 1.039,-1.446 2.105,-2.672 3.201,-3.671 1.096,-1.002 2.2,-1.838 3.311,-2.509 1.112,-0.672 2.184,-1.322 3.213,-1.949 1.032,-0.628 1.992,-1.292 2.882,-1.993 0.892,-0.703 1.669,-1.575 2.332,-2.621 0.661,-1.046 1.18,-2.323 1.556,-3.831 0.377,-1.507 0.565,-3.381 0.565,-5.62 0,-2.032 -0.188,-3.809 -0.565,-5.332 -0.376,-1.523 -0.891,-2.791 -1.545,-3.807 -0.655,-1.016 -1.425,-1.777 -2.317,-2.284 -0.892,-0.509 -1.845,-0.763 -2.859,-0.763 -1.063,0 -2.047,0.359 -2.955,1.075 -0.907,0.718 -1.726,1.726 -2.453,3.024 -0.727,1.299 -1.357,2.859 -1.889,4.682 -0.531,1.821 -0.936,3.852 -1.214,6.092 l -7.53,-7.616 c 0.67,-2.509 1.623,-4.688 2.858,-6.54 1.234,-1.852 2.604,-3.397 4.109,-4.637 1.503,-1.239 3.07,-2.164 4.696,-2.777 1.627,-0.612 3.169,-0.917 4.623,-0.917 1.407,0 2.797,0.103 4.17,0.314 1.375,0.208 2.679,0.595 3.914,1.162 1.234,0.568 2.375,1.346 3.421,2.331 1.047,0.985 1.955,2.247 2.722,3.785 0.769,1.538 1.371,3.382 1.804,5.533 0.433,2.149 0.65,4.673 0.65,7.569 z m 14.1,38.391 c 0,1.135 -0.114,2.201 -0.342,3.203 -0.23,1 -0.547,1.866 -0.958,2.597 -0.408,0.733 -0.882,1.315 -1.422,1.747 -0.539,0.433 -1.12,0.65 -1.742,0.65 -0.621,0 -1.202,-0.217 -1.741,-0.65 -0.539,-0.432 -1.014,-1.014 -1.423,-1.747 -0.408,-0.731 -0.727,-1.597 -0.957,-2.597 -0.228,-1.002 -0.343,-2.068 -0.343,-3.203 0,-1.104 0.115,-2.157 0.343,-3.159 0.23,-1 0.549,-1.866 0.957,-2.597 0.409,-0.733 0.884,-1.315 1.423,-1.748 0.539,-0.432 1.12,-0.649 1.741,-0.649 0.622,0 1.203,0.217 1.742,0.649 0.54,0.433 1.014,1.015 1.422,1.748 0.411,0.731 0.728,1.597 0.958,2.597 0.228,1.002 0.342,2.055 0.342,3.159 z m 24.114,6.718 h -19.157 v -8.196 h 4.71 V 21.538 h -4.71 v -8.197 h 14.448 v 56.308 h 4.709 z m 23.104,0 H 262.53 v -8.196 h 4.709 V 21.538 h -4.709 v -8.197 h 14.447 v 56.308 h 4.709 z"
     style="white-space:pre;mix-blend-mode:normal;fill:url(#radialGradient2884);fill-opacity:1"
     id="path21" />
</svg>

<?xml version="1.0" encoding="utf-8"?>
<svg viewBox="100 0 192 192" width="192px" height="192px" xmlns="http://www.w3.org/2000/svg">
  <path d="M 118.122 133.623 C 118.122 138.92 119.024 143.735 120.834 148.065 C 122.641 152.398 125.16 156.117 128.389 159.228 C 131.62 162.34 135.481 164.736 139.97 166.419 C 144.46 168.1 149.389 168.941 154.757 168.941 C 160.122 168.941 164.776 168.458 168.718 167.489 C 172.663 166.524 176.495 165.198 180.219 163.517 L 184.982 173.483 C 180.931 175.164 176.303 176.572 171.101 177.709 C 165.899 178.843 159.848 179.41 152.949 179.41 C 145.392 179.41 138.519 178.359 132.333 176.257 C 126.145 174.154 120.803 171.148 116.317 167.238 C 111.825 163.328 108.348 158.576 105.886 152.985 C 103.419 147.392 102.188 141.105 102.188 134.126 C 102.188 127.4 103.419 121.218 105.886 115.585 C 108.348 109.951 111.88 105.095 116.478 101.014 C 121.081 96.938 126.637 93.762 133.154 91.49 C 139.67 89.221 146.925 88.087 154.919 88.087 C 160.504 88.087 165.517 88.485 169.952 89.285 C 174.386 90.084 178.576 91.197 182.516 92.629 L 177.753 102.718 C 174.36 101.456 170.884 100.447 167.324 99.693 C 163.761 98.933 159.574 98.556 154.757 98.556 C 149.499 98.556 144.626 99.334 140.134 100.889 C 135.645 102.447 131.757 104.738 128.471 107.763 C 125.187 110.792 122.641 114.471 120.834 118.801 C 119.024 123.13 118.122 128.072 118.122 133.623 Z M 273.357 179.41 L 259.065 155.444 C 255.452 149.474 250.905 145.226 245.43 142.704 C 239.955 140.18 232.946 138.92 224.402 138.92 L 221.94 138.92 L 221.94 177.898 L 206.335 177.898 L 206.335 89.852 C 212.247 89.432 217.806 89.116 223.006 88.906 C 228.209 88.698 233.876 88.591 240.011 88.591 C 247.018 88.591 253.151 89.158 258.409 90.293 C 263.664 91.428 268.046 93.048 271.549 95.15 C 275.054 97.253 277.71 99.733 279.519 102.591 C 281.325 105.45 282.228 108.605 282.228 112.052 C 282.228 118.19 279.845 123.13 275.082 126.873 C 270.317 130.615 263.446 133.412 254.465 135.261 C 256.658 136.019 258.683 136.881 260.544 137.848 C 262.406 138.814 264.157 139.991 265.8 141.379 C 267.444 142.768 269.058 144.428 270.646 146.364 C 272.236 148.298 273.85 150.65 275.495 153.426 L 287.979 174.113 Z M 240.011 98.682 C 236.283 98.682 232.946 98.723 229.988 98.808 C 227.03 98.892 224.349 99.018 221.94 99.186 L 221.94 128.829 L 240.011 128.829 C 247.894 128.829 254.299 127.484 259.23 124.79 C 264.157 122.1 266.621 118.233 266.621 113.188 C 266.621 108.984 264.321 105.515 259.724 102.78 C 255.124 100.048 248.551 98.682 240.011 98.682 Z" style="white-space: pre; stroke-width: 1.61277px; fill: rgb(49, 31, 255);"/>
  <path d="M 133.764 58.941 C 133.764 56.701 133.556 54.784 133.138 53.185 C 132.721 51.588 132.149 50.281 131.421 49.266 C 130.695 48.252 129.845 47.504 128.87 47.026 C 127.898 46.549 126.856 46.31 125.743 46.31 C 124.665 46.31 123.651 46.571 122.702 47.093 C 121.753 47.615 120.932 48.4 120.236 49.445 C 119.541 50.492 118.99 51.805 118.58 53.387 C 118.172 54.971 117.967 56.823 117.967 58.941 C 117.967 61.003 118.177 62.817 118.593 64.384 C 119.01 65.953 119.571 67.273 120.273 68.35 C 120.977 69.425 121.798 70.231 122.739 70.768 C 123.679 71.306 124.68 71.575 125.743 71.575 C 126.758 71.575 127.746 71.298 128.711 70.745 C 129.677 70.193 130.53 69.38 131.274 68.306 C 132.018 67.23 132.62 65.909 133.078 64.339 C 133.536 62.772 133.764 60.973 133.764 58.941 Z M 117.183 41.382 C 116.414 40.875 115.678 40.194 114.974 39.344 C 114.272 38.493 113.646 37.53 113.099 36.454 C 112.551 35.38 112.114 34.2 111.787 32.916 C 111.459 31.631 111.296 30.288 111.296 28.884 C 111.296 26.704 111.516 24.77 111.958 23.084 C 112.4 21.397 112.996 19.94 113.749 18.717 C 114.501 17.491 115.367 16.469 116.349 15.647 C 117.33 14.825 118.356 14.161 119.427 13.654 C 120.498 13.147 121.578 12.788 122.664 12.58 C 123.753 12.369 124.779 12.265 125.743 12.265 C 126.724 12.265 127.767 12.362 128.87 12.555 C 129.974 12.751 131.066 13.087 132.145 13.564 C 133.225 14.041 134.263 14.684 135.26 15.49 C 136.258 16.297 137.134 17.313 137.885 18.536 C 138.637 19.761 139.238 21.225 139.688 22.928 C 140.138 24.628 140.363 26.614 140.363 28.884 C 140.363 30.258 140.199 31.595 139.871 32.893 C 139.545 34.193 139.12 35.394 138.596 36.5 C 138.072 37.605 137.477 38.583 136.806 39.435 C 136.136 40.285 135.457 40.95 134.771 41.426 C 135.914 41.876 137.009 42.613 138.057 43.645 C 139.103 44.675 140.027 45.943 140.828 47.452 C 141.629 48.961 142.263 50.685 142.73 52.626 C 143.195 54.567 143.428 56.671 143.428 58.941 C 143.428 61.839 143.163 64.355 142.631 66.491 C 142.099 68.625 141.385 70.44 140.486 71.933 C 139.586 73.425 138.542 74.642 137.359 75.584 C 136.173 76.525 134.925 77.256 133.617 77.779 C 132.308 78.3 130.977 78.66 129.62 78.853 C 128.263 79.048 126.97 79.145 125.743 79.145 C 124.566 79.145 123.319 79.025 122.003 78.787 C 120.686 78.548 119.381 78.128 118.091 77.533 C 116.799 76.935 115.561 76.144 114.375 75.158 C 113.189 74.173 112.146 72.933 111.247 71.439 C 110.347 69.948 109.632 68.17 109.101 66.111 C 108.569 64.049 108.303 61.66 108.303 58.941 C 108.303 56.643 108.549 54.507 109.039 52.535 C 109.53 50.564 110.185 48.819 111.002 47.295 C 111.819 45.773 112.764 44.503 113.834 43.488 C 114.906 42.472 116.022 41.771 117.183 41.382 Z M 125.743 20.821 C 124.925 20.821 124.161 20.993 123.449 21.336 C 122.739 21.68 122.118 22.21 121.586 22.928 C 121.054 23.643 120.638 24.57 120.335 25.705 C 120.033 26.84 119.88 28.198 119.88 29.78 C 119.88 31.304 120.036 32.625 120.347 33.744 C 120.658 34.864 121.079 35.79 121.61 36.522 C 122.142 37.254 122.763 37.799 123.475 38.157 C 124.186 38.516 124.942 38.694 125.743 38.694 C 126.513 38.694 127.26 38.516 127.988 38.157 C 128.716 37.799 129.361 37.246 129.925 36.5 C 130.49 35.754 130.943 34.82 131.287 33.699 C 131.63 32.58 131.801 31.274 131.801 29.78 C 131.801 28.108 131.646 26.704 131.336 25.569 C 131.025 24.434 130.596 23.517 130.048 22.814 C 129.5 22.113 128.859 21.605 128.123 21.292 C 127.387 20.978 126.593 20.821 125.743 20.821 Z M 183.013 45.504 C 183.013 49.445 182.768 53.006 182.278 56.187 C 181.787 59.367 181.112 62.205 180.254 64.698 C 179.396 67.192 178.393 69.35 177.249 71.171 C 176.104 72.993 174.878 74.494 173.569 75.673 C 172.261 76.854 170.904 77.727 169.498 78.294 C 168.091 78.862 166.702 79.145 165.329 79.145 C 163.938 79.145 162.54 78.839 161.133 78.228 C 159.727 77.615 158.379 76.689 157.087 75.451 C 155.794 74.21 154.588 72.664 153.468 70.814 C 152.348 68.961 151.376 66.789 150.549 64.296 C 149.724 61.803 149.074 58.987 148.599 55.851 C 148.125 52.716 147.888 49.266 147.888 45.504 C 147.888 41.532 148.129 37.949 148.612 34.752 C 149.094 31.557 149.753 28.705 150.586 26.197 C 151.42 23.689 152.402 21.53 153.53 19.725 C 154.659 17.917 155.868 16.431 157.159 15.267 C 158.451 14.102 159.793 13.235 161.183 12.668 C 162.573 12.1 163.954 11.816 165.329 11.816 C 166.8 11.816 168.263 12.1 169.718 12.668 C 171.173 13.235 172.555 14.102 173.864 15.267 C 175.172 16.431 176.386 17.917 177.506 19.725 C 178.626 21.53 179.591 23.689 180.4 26.197 C 181.21 28.705 181.848 31.557 182.314 34.752 C 182.779 37.949 183.013 41.532 183.013 45.504 Z M 173.35 45.504 C 173.35 43.533 173.296 41.517 173.19 39.455 C 173.083 37.396 172.911 35.394 172.675 33.453 C 172.437 31.513 172.119 29.69 171.718 27.988 C 171.318 26.287 170.819 24.799 170.221 23.531 C 169.625 22.261 168.921 21.261 168.112 20.531 C 167.302 19.797 166.374 19.432 165.329 19.432 C 164.362 19.432 163.501 19.797 162.74 20.531 C 161.979 21.261 161.309 22.255 160.728 23.508 C 160.149 24.763 159.658 26.242 159.257 27.944 C 158.856 29.646 158.529 31.459 158.276 33.387 C 158.022 35.313 157.838 37.312 157.724 39.389 C 157.609 41.465 157.552 43.503 157.552 45.504 C 157.552 47.474 157.609 49.49 157.724 51.552 C 157.838 53.611 158.022 55.605 158.276 57.532 C 158.529 59.458 158.856 61.272 159.257 62.974 C 159.658 64.677 160.149 66.161 160.728 67.431 C 161.309 68.7 161.979 69.709 162.74 70.455 C 163.501 71.201 164.362 71.575 165.329 71.575 C 166.244 71.575 167.082 71.194 167.842 70.433 C 168.602 69.67 169.282 68.641 169.878 67.342 C 170.475 66.042 170.99 64.535 171.423 62.817 C 171.856 61.1 172.216 59.279 172.503 57.352 C 172.789 55.425 173.001 53.448 173.14 51.416 C 173.279 49.387 173.35 47.416 173.35 45.504 Z M 220.368 32.736 C 220.368 35.394 220.171 37.686 219.778 39.612 C 219.385 41.539 218.855 43.189 218.184 44.563 C 217.514 45.936 216.725 47.093 215.817 48.034 C 214.91 48.976 213.941 49.803 212.911 50.522 C 211.881 51.237 210.814 51.88 209.71 52.447 C 208.607 53.015 207.514 53.611 206.435 54.238 C 205.355 54.866 204.318 55.582 203.32 56.388 C 202.322 57.196 201.423 58.189 200.622 59.367 C 199.821 60.547 199.134 61.966 198.562 63.623 C 197.989 65.281 197.598 67.273 197.384 69.604 L 220.368 69.604 L 220.368 77.845 L 186.911 77.845 C 187.27 73.724 187.786 70.164 188.456 67.162 C 189.126 64.161 189.904 61.585 190.786 59.436 C 191.669 57.285 192.63 55.485 193.668 54.036 C 194.707 52.59 195.773 51.364 196.869 50.365 C 197.965 49.363 199.069 48.527 200.18 47.856 C 201.292 47.184 202.364 46.534 203.393 45.907 C 204.425 45.279 205.385 44.615 206.275 43.914 C 207.167 43.211 207.944 42.339 208.607 41.293 C 209.268 40.247 209.787 38.97 210.163 37.462 C 210.54 35.955 210.728 34.081 210.728 31.842 C 210.728 29.81 210.54 28.033 210.163 26.51 C 209.787 24.987 209.272 23.719 208.618 22.703 C 207.963 21.687 207.193 20.926 206.301 20.419 C 205.409 19.91 204.456 19.656 203.442 19.656 C 202.379 19.656 201.395 20.015 200.487 20.731 C 199.58 21.449 198.761 22.457 198.034 23.755 C 197.307 25.054 196.677 26.614 196.145 28.437 C 195.614 30.258 195.209 32.289 194.931 34.529 L 187.401 26.913 C 188.071 24.404 189.024 22.225 190.259 20.373 C 191.493 18.521 192.863 16.976 194.368 15.736 C 195.871 14.497 197.438 13.572 199.064 12.959 C 200.691 12.347 202.233 12.042 203.687 12.042 C 205.094 12.042 206.484 12.145 207.857 12.356 C 209.232 12.564 210.536 12.951 211.771 13.518 C 213.005 14.086 214.146 14.864 215.192 15.849 C 216.239 16.834 217.147 18.096 217.914 19.634 C 218.683 21.172 219.285 23.016 219.718 25.167 C 220.151 27.316 220.368 29.84 220.368 32.736 Z M 234.468 71.127 C 234.468 72.262 234.354 73.328 234.126 74.33 C 233.896 75.33 233.579 76.196 233.168 76.927 C 232.76 77.66 232.286 78.242 231.746 78.674 C 231.207 79.107 230.626 79.324 230.004 79.324 C 229.383 79.324 228.802 79.107 228.263 78.674 C 227.724 78.242 227.249 77.66 226.84 76.927 C 226.432 76.196 226.113 75.33 225.883 74.33 C 225.655 73.328 225.54 72.262 225.54 71.127 C 225.54 70.023 225.655 68.97 225.883 67.968 C 226.113 66.968 226.432 66.102 226.84 65.371 C 227.249 64.638 227.724 64.056 228.263 63.623 C 228.802 63.191 229.383 62.974 230.004 62.974 C 230.626 62.974 231.207 63.191 231.746 63.623 C 232.286 64.056 232.76 64.638 233.168 65.371 C 233.579 66.102 233.896 66.968 234.126 67.968 C 234.354 68.97 234.468 70.023 234.468 71.127 Z M 258.582 77.845 L 239.425 77.845 L 239.425 69.649 L 244.135 69.649 L 244.135 21.538 L 239.425 21.538 L 239.425 13.341 L 253.873 13.341 L 253.873 69.649 L 258.582 69.649 Z M 281.686 77.845 L 262.53 77.845 L 262.53 69.649 L 267.239 69.649 L 267.239 21.538 L 262.53 21.538 L 262.53 13.341 L 276.977 13.341 L 276.977 69.649 L 281.686 69.649 Z" style="white-space: pre; fill: rgb(62, 62, 62);"/>
</svg>
